X: 1841
T: Rita Troutman's Gypsy Tap
B: australian traditional tunes wiki
M:6/8
L:1/8
R: Gypsy Tap
Q: 3/8=100
K:D
V:1 
d|:"D"d2D dDd|BA4F|"A"E2D E2F|"D"ED4F|"A"E2D E2F|"D"ED4F|"A"E2D E2F|"G"G2A "A"B2c|
"D"d2D dDd|BA4F|"A"E2DE2F|"D"ED4F|"A"E2D E2F|"G"G2A "A"B2c|"D"d2A BAF|D3FG^G|
A3-A3|D4-D F|A2^G A2G|"A"AG3^G=G|"D"F2G A2d|D3F3|"A"E3-E3|E3FG^G|
"D"A3-A3|d4-d F|A2^G A2G|"A"AG3 ^G=G|"D"F2G A2d|D3F3|"A7"E3-E3|"D"D6||
% abcbook-tune_id 6342d53aa3534b3e40afb1ec


% abcbook-boost 0
% abcbook-tablature 
% abcbook-transpose 
% abcbook-lastupdated 1665324387216
% abcbook-soundfonts 
% abcbook-repeats 1
% NFF Book 2015

